icons/svgs/ticket-simple-solid.svg

<svg width="24" height="24" viewBox="0 0 24 24" fill="none" xmlns="http://www.w3.org/2000/svg">
<path d="M1.25 7C1.25 5.63281 2.34375 4.5 3.75 4.5H21.25C22.6172 4.5 23.75 5.63281 23.75 7V9.5C23.75 9.85156 23.4375 10.125 23.125 10.2422C22.3828 10.5156 21.875 11.1797 21.875 12C21.875 12.8203 22.3828 13.5234 23.125 13.7969C23.4375 13.9141 23.75 14.1875 23.75 14.5V17C23.75 18.4062 22.6172 19.5 21.25 19.5H3.75C2.34375 19.5 1.25 18.4062 1.25 17V14.5C1.25 14.1875 1.52344 13.9141 1.83594 13.7969C2.57812 13.5234 3.125 12.8203 3.125 12C3.125 11.1797 2.57812 10.5156 1.83594 10.2422C1.52344 10.125 1.25 9.85156 1.25 9.5V7Z" fill="black"/>
</svg>

<svg xmlns="http://www.w3.org/2000/svg" width="24" height="24" fill="currentColor" class="icon-ticket-simple-solid" viewBox="0 0 24 24">
  <mask id="a" width="23" height="16" x="1" y="4" maskUnits="userSpaceOnUse" style="mask-type:alpha">
    <path d="M1.25 7c0-1.367 1.094-2.5 2.5-2.5h17.5c1.367 0 2.5 1.133 2.5 2.5v2.5c0 .352-.312.625-.625.742-.742.274-1.25.938-1.25 1.758s.508 1.523 1.25 1.797c.313.117.625.39.625.703V17c0 1.406-1.133 2.5-2.5 2.5H3.75a2.47 2.47 0 0 1-2.5-2.5v-2.5c0-.312.273-.586.586-.703.742-.274 1.289-.977 1.289-1.797s-.547-1.484-1.29-1.758c-.312-.117-.585-.39-.585-.742z"/>
  </mask>
  <g mask="url(#a)">
    <path d="M0 0h24v24H0z"/>
  </g>
</svg>
